X:2784
T:Cecen Kizi
O:Turkey(Ottoman)
M:2/4
C:Tanburi Cemil Bey(1871-1916)
K:Dm
D/2E/2F/2G/2AA|A4|A/2G/2A/2d/2A2|A/2G/2A/2d/2A2|
A/2G/2A/2d/2A/2G/2A/2d/2|A/2G/2A/2d/2A2|GF/2A/2Gz|GF/2A/2Gz|
Gc/2B/2B/2A/2A/2G/2|G/2F/2F/2E/2E/2D/2E/2C/2|D/2E/2F/2E/2F/2G/2E/2C/2|D3z|
D/2E/2F/2G/2AA|A4|A/2G/2A/2d/2A2|A/2G/2A/2d/2A2|
A/2G/2A/2d/2A/2G/2A/2d/2|A/2G/2A/2d/2A2|GF/2A/2Gz|GF/2A/2Gz|
Gc/2B/2B/2A/2A/2G/2|G/2F/2F/2E/2E/2D/2E/2C/2|D/2E/2F/2G/2E/2D/2E/2C/2|D3z|
|:C/2D/2E/2F/2G/2A/2^B/2c/2|d4|d2d2|d2d2|
cd/2c/2c/2B/2B/2A/2|A/2G/2G/2F/2F/2E/2E/2D/2|D/2C/2D/2E/2F/2G/2E/2C/2|D3D:|
|:E/2F/2GG/2A/2F|E/2F/2GG/2A/2F|E/2F/2GG/2A/2F|EFFE:|
D/2E/2F/2G/2AA|A/2d/2AzA/2G/2|zD/2E/2F/2G/2A/2G/2|A/2d/2AzA/2G/2|
FGGG/2F/2|EFFF/2E/2|DEE/2D/2C|D3z|
D/2E/2F/2G/2AA|A4|A/2G/2A/2d/2A2|A/2G/2A/2d/2A2|
A/2G/2A/2d/2A/2G/2A/2d/2|A/2G/2A/2d/2A2|GF/2A/2Gz|GF/2A/2Gz|
Gc/2B/2B/2A/2A/2G/2|G/2F/2F/2E/2E/2D/2E/2C/2|D/2E/2F/2E/2F/2G/2E/2C/2|D3z|
D/2E/2F/2G/2AA|A4|A/2G/2A/2d/2A2|A/2G/2A/2d/2A2|
A/2G/2A/2d/2A/2G/2A/2d/2|A/2G/2A/2d/2A2|GF/2A/2Gz|GF/2A/2Gz|
Gc/2B/2B/2A/2A/2G/2|G/2F/2F/2E/2E/2D/2E/2C/2|D/2E/2F/2G/2E/2D/2E/2C/2|D3z||


